package/svg/logo_netflix.svg

<svg width="56" height="56" viewBox="0 0 56 56" fill="none" xmlns="http://www.w3.org/2000/svg">
<path d="M32.081 24.9661V1.76807H42.457V54.2321H42.455L42.43 54.2291C41.981 54.1731 41.534 54.1211 41.089 54.0721L41.071 54.0701L40.922 54.0541L40.896 54.0511L40.75 54.0361L40.727 54.0331C40.518 54.0111 40.309 53.9891 40.101 53.9681L40.072 53.9651L39.948 53.9531L39.895 53.9481L39.778 53.9361L39.719 53.9301L39.605 53.9191L39.544 53.9141L39.43 53.9031L39.372 53.8971L39.255 53.8861L39.08 53.8701C39.025 53.8651 38.97 53.8601 38.915 53.8551L38.75 53.8411L38.575 53.8251L38.463 53.8161L38.4 53.8101L38.293 53.8011L38.224 53.7951L38.122 53.7871L38.049 53.7811L37.95 53.7731L37.871 53.7661L37.778 53.7591L37.606 53.7451L37.435 53.7321L37.256 53.7191L37.216 53.7161L37.076 53.7051L37.04 53.7031L36.89 53.6921L36.867 53.6901L36.696 53.6781L36.514 53.6651C36.453 53.6611 36.392 53.6571 36.331 53.6531L36.306 53.6511C34.858 53.5541 33.446 53.4871 32.081 53.4441L23.919 30.6481V53.4451C17.634 53.6441 13.544 54.2291 13.543 54.2291V1.76807H23.919V1.89007L32.081 24.9661V24.9661Z" fill="black"/>
</svg>

<svg width="100%" height="100%" viewBox="0 0 56 56" version="1.1" xmlns="http://www.w3.org/2000/svg"><g><path id="Netflix_Symbol_Left_Leg" d="M32.081,24.966l-0,-23.198l10.376,0l-0,52.464l-0.002,-0l-0.025,-0.003c-0.449,-0.056 -0.896,-0.108 -1.341,-0.157l-0.018,-0.002l-0.149,-0.016l-0.026,-0.003l-0.146,-0.015l-0.023,-0.003c-0.209,-0.022 -0.418,-0.044 -0.626,-0.065l-0.029,-0.003l-0.124,-0.012l-0.053,-0.005l-0.117,-0.012l-0.059,-0.006l-0.114,-0.011l-0.061,-0.005l-0.114,-0.011l-0.058,-0.006l-0.117,-0.011l-0.175,-0.016c-0.055,-0.005 -0.11,-0.01 -0.165,-0.015l-0.165,-0.014l-0.175,-0.016l-0.112,-0.009l-0.063,-0.006l-0.107,-0.009l-0.069,-0.006l-0.102,-0.008l-0.073,-0.006l-0.099,-0.008l-0.079,-0.007l-0.093,-0.007l-0.172,-0.014l-0.171,-0.013l-0.179,-0.013l-0.04,-0.003l-0.14,-0.011l-0.036,-0.002l-0.15,-0.011l-0.023,-0.002l-0.171,-0.012l-0.182,-0.013c-0.061,-0.004 -0.122,-0.008 -0.183,-0.012l-0.025,-0.002c-1.448,-0.097 -2.86,-0.164 -4.225,-0.207c-0,-0 -8.162,-22.796 -8.162,-22.796l0,22.797c-6.285,0.199 -10.375,0.784 -10.376,0.784l0,-52.461l10.376,0l0,0.122l8.162,23.076Z"/></g></svg>
